images/410action-shading.svg

<?xml version="1.0" encoding="UTF-8" standalone="no"?>
<svg width="1000px" height="832px" viewBox="0 0 1000 832" version="1.1" xmlns="http://www.w3.org/2000/svg" xmlns:xlink="http://www.w3.org/1999/xlink" xmlns:sketch="http://www.bohemiancoding.com/sketch/ns">
    <!-- Generator: Sketch 3.2.2 (9983) - http://www.bohemiancoding.com/sketch -->
    <title>410action-shading</title>
    <desc>Created with Sketch.</desc>
    <defs>
        <filter x="-50%" y="-50%" width="200%" height="200%" filterUnits="objectBoundingBox" id="filter-1">
            <feGaussianBlur stdDeviation="4.00390625" in="SourceGraphic" result="blur"></feGaussianBlur>
        </filter>
        <filter x="-50%" y="-50%" width="200%" height="200%" filterUnits="objectBoundingBox" id="filter-2">
            <feGaussianBlur stdDeviation="4.00390625" in="SourceGraphic" result="blur"></feGaussianBlur>
        </filter>
        <filter x="-50%" y="-50%" width="200%" height="200%" filterUnits="objectBoundingBox" id="filter-3">
            <feGaussianBlur stdDeviation="4.00390625" in="SourceGraphic" result="blur"></feGaussianBlur>
        </filter>
        <filter x="-50%" y="-50%" width="200%" height="200%" filterUnits="objectBoundingBox" id="filter-4">
            <feGaussianBlur stdDeviation="4" in="SourceGraphic" result="blur"></feGaussianBlur>
        </filter>
        <filter x="-50%" y="-50%" width="200%" height="200%" filterUnits="objectBoundingBox" id="filter-5">
            <feGaussianBlur stdDeviation="4" in="SourceGraphic" result="blur"></feGaussianBlur>
        </filter>
        <filter x="-50%" y="-50%" width="200%" height="200%" filterUnits="objectBoundingBox" id="filter-6">
            <feGaussianBlur stdDeviation="4" in="SourceGraphic" result="blur"></feGaussianBlur>
        </filter>
        <filter x="-50%" y="-50%" width="200%" height="200%" filterUnits="objectBoundingBox" id="filter-7">
            <feGaussianBlur stdDeviation="4" in="SourceGraphic" result="blur"></feGaussianBlur>
        </filter>
        <filter x="-50%" y="-50%" width="200%" height="200%" filterUnits="objectBoundingBox" id="filter-8">
            <feGaussianBlur stdDeviation="4" in="SourceGraphic" result="blur"></feGaussianBlur>
        </filter>
        <filter x="-50%" y="-50%" width="200%" height="200%" filterUnits="objectBoundingBox" id="filter-9">
            <feGaussianBlur stdDeviation="4" in="SourceGraphic" result="blur"></feGaussianBlur>
        </filter>
        <filter x="-50%" y="-50%" width="200%" height="200%" filterUnits="objectBoundingBox" id="filter-10">
            <feGaussianBlur stdDeviation="4" in="SourceGraphic" result="blur"></feGaussianBlur>
        </filter>
        <filter x="-50%" y="-50%" width="200%" height="200%" filterUnits="objectBoundingBox" id="filter-11">
            <feGaussianBlur stdDeviation="4" in="SourceGraphic" result="blur"></feGaussianBlur>
        </filter>
    </defs>
    <g id="Page-1" stroke="none" stroke-width="1" fill="none" fill-rule="evenodd" sketch:type="MSPage">
        <g id="410action-shading" sketch:type="MSArtboardGroup" fill="#5D5D5D">
            <g id="-410" sketch:type="MSLayerGroup" transform="translate(282.000000, 65.000000)" fill-opacity="0.799999893">
                <path d="M121.926014,150.516381 L121.926014,182.812687 L79.0411367,182.812687 L79.0411367,150.516381 L0.459589928,150.516381 L0.483194245,120.255075 L76.2113957,0.515895522 L121.926014,0.515895522 L121.873252,120.255075 L140.562317,120.255075 L140.702554,150.516381 L121.926014,150.516381 L121.926014,150.516381 Z M79.0411367,60.9777612 L39.4289281,120.255075 L79.0411367,120.255075 L79.0411367,60.9777612 L79.0411367,60.9777612 Z" id="Fill-1" filter="url(#filter-1)" sketch:type="MSShapeGroup"></path>
                <path d="M176.054878,182.812687 L176.054878,23.961194 L145.919108,23.961194 L145.919108,0.277052239 L222.184655,0.277052239 L222.184655,182.812687 L176.054878,182.812687" id="Fill-2" filter="url(#filter-2)" sketch:type="MSShapeGroup"></path>
                <path d="M250.344604,0.515895522 L385.25577,0.515895522 L385.25577,182.812687 L250.344604,182.812687 L250.344604,0.515895522 Z M296.242504,158.410634 L339.125993,158.410634 L339.125993,24.9179478 L296.242504,24.9179478 L296.242504,158.410634 Z" id="Fill-3" filter="url(#filter-3)" sketch:type="MSShapeGroup"></path>
            </g>
            <g id="還權於民重返立院" sketch:type="MSLayerGroup" transform="translate(54.000000, 287.500000)" fill-opacity="0.8">
                <path d="M9.03090395,24.9291139 L0.225772599,4.23797468 L20.627291,4.23797468 L29.0023192,24.9291139 L9.03090395,24.9291139 L9.03090395,24.9291139 Z M77.2142288,85.7063291 L58.4233898,69.9734177 L55.8465551,71.4822785 L55.8465551,76.9772152 L64.9733178,76.9772152 L61.0014859,85.7063291 L36.9485056,85.7063291 L36.9485056,76.2227848 L28.4662669,76.2227848 L28.4662669,83.6582278 L39.4181299,88.2924051 L97.5085367,88.2924051 L93.5354435,98.0987342 L37.7002401,98.0987342 L25.029226,92.4949367 L21.4862359,98.0987342 L1.08471751,98.0987342 L10.2127415,83.1202532 L10.2127415,66.5253165 L2.37376554,66.5253165 L2.37376554,56.2873418 L9.46100706,38.6139241 L2.15808333,38.6139241 L2.15808333,28.0544304 L28.1446356,28.0544304 L28.1446356,39.8 L21.916339,55.856962 L28.4662669,55.856962 L28.4662669,73.6379747 L43.7141158,63.7227848 L32.4393602,63.7227848 L32.4393602,44.864557 L93.5354435,44.864557 L93.5354435,63.7227848 L67.7658347,63.7227848 L64.4372655,65.9860759 L74.9590254,65.9860759 L79.577904,69.8658228 L83.0124223,65.7696203 L96.9724845,65.7696203 L87.8444605,76.8708861 L98.3674816,85.7063291 L77.2142288,85.7063291 L77.2142288,85.7063291 Z M29.6468432,33.3341772 L95.8978573,33.3341772 L95.8978573,41.7405063 L29.6468432,41.7405063 L29.6468432,33.3341772 Z M30.6129986,5.20886076 L94.6100706,5.20886076 L94.6100706,30.2101266 L30.6129986,30.2101266 L30.6129986,5.20886076 Z M47.1486342,21.0493671 L51.3374096,21.0493671 L51.3374096,14.1518987 L47.1486342,14.1518987 L47.1486342,21.0493671 Z M51.1229887,56.0721519 L74.4229732,56.0721519 L74.4229732,52.7303797 L51.1229887,52.7303797 L51.1229887,56.0721519 Z M60.7858037,21.0493671 L64.8661073,21.0493671 L64.8661073,14.1518987 L60.7858037,14.1518987 L60.7858037,21.0493671 Z M74.2085523,21.0493671 L78.2888559,21.0493671 L78.2888559,14.1518987 L74.2085523,14.1518987 L74.2085523,21.0493671 Z" id="Fill-2" filter="url(#filter-4)" sketch:type="MSShapeGroup"></path>
                <path d="M115.342049,92.4949367 L108.469229,92.4949367 L110.18838,32.7962025 L117.059939,32.7962025 L115.342049,92.4949367 L115.342049,92.4949367 Z M136.602513,27.9468354 L136.602513,99.1772152 L118.348987,99.1772152 L118.454936,27.9468354 L108.899332,27.9468354 L108.899332,18.0316456 L118.348987,18.0316456 L118.348987,3.59240506 L136.602513,3.59240506 L136.602513,18.0316456 L144.548699,18.0316456 L144.548699,27.9468354 L136.602513,27.9468354 L136.602513,27.9468354 Z M148.950634,99.1772152 L148.950634,69.4341772 L145.730537,69.4341772 L146.482271,92.4949367 L139.82261,92.4949367 L137.891561,32.7962025 L144.654648,32.7962025 L145.622065,62.4291139 L152.171993,47.1278481 L170.639939,47.1278481 L169.030521,51.5455696 L173.109564,51.5455696 L172.143408,47.1278481 L190.506667,47.1278481 L191.471561,51.5455696 L203.712472,51.5455696 L203.712472,60.5974684 L191.36435,60.5974684 L191.36435,64.4772152 L201.887371,64.4772152 L201.887371,73.0974684 L191.36435,73.0974684 L191.36435,77.1924051 L201.887371,77.1924051 L201.887371,85.8139241 L191.36435,85.8139241 L191.36435,89.8012658 L204.142575,89.8012658 L204.142575,99.1772152 L148.950634,99.1772152 L148.950634,99.1772152 Z M196.948123,18.1405063 L196.948123,21.5886076 L179.23065,21.5886076 L179.23065,18.1405063 L169.889466,18.1405063 L169.889466,21.5886076 L152.387675,21.5886076 L152.387675,18.1405063 L146.052168,18.1405063 L146.052168,8.8721519 L152.387675,8.8721519 L152.387675,3.59240506 L169.889466,3.59240506 L169.889466,8.8721519 L179.23065,8.8721519 L179.23065,3.59240506 L196.948123,3.59240506 L196.948123,8.8721519 L204.356996,8.8721519 L204.356996,18.1405063 L196.948123,18.1405063 L196.948123,18.1405063 Z M147.661586,23.8518987 L173.109564,23.8518987 L173.109564,44.9721519 L147.661586,44.9721519 L147.661586,23.8518987 Z M157.648555,36.6746835 L163.019168,36.6746835 L163.019168,32.256962 L157.648555,32.256962 L157.648555,36.6746835 Z M166.668107,64.4772152 L173.646877,64.4772152 L173.646877,60.5974684 L166.668107,60.5974684 L166.668107,64.4772152 Z M166.668107,77.1924051 L173.646877,77.1924051 L173.646877,73.0974684 L166.668107,73.0974684 L166.668107,77.1924051 Z M166.668107,89.8012658 L173.646877,89.8012658 L173.646877,85.8139241 L166.668107,85.8139241 L166.668107,89.8012658 Z M176.332184,23.8518987 L202.209003,23.8518987 L202.209003,44.9721519 L176.332184,44.9721519 L176.332184,23.8518987 Z M186.317891,36.6746835 L191.794453,36.6746835 L191.794453,32.256962 L186.317891,32.256962 L186.317891,36.6746835 Z" id="Fill-5" filter="url(#filter-5)" sketch:type="MSShapeGroup"></path>
                <path d="M294.88424,42.0620253 L286.938054,15.6620253 L283.823905,15.6620253 L276.523504,42.0620253 L260.415449,42.0620253 L260.415449,98.8531646 L240.766927,98.8531646 L237.006993,89.5848101 L234.324209,98.8531646 L215.855001,98.8531646 L221.008671,81.6113924 L221.008671,24.4974684 L216.713946,24.4974684 L216.713946,13.9367089 L228.847647,13.9367089 L226.378023,3.80759494 L247.638486,3.80759494 L250.323792,13.9367089 L260.631131,13.9367089 L260.631131,24.4974684 L238.726144,24.4974684 L238.726144,37.9683544 L259.020452,37.9683544 L268.468846,4.99367089 L302.293113,4.99367089 L313.8895,42.0620253 L294.88424,42.0620253 L294.88424,42.0620253 Z M243.772603,48.5291139 L239.047775,48.5291139 L239.047775,82.3658228 L237.437096,88.2924051 L243.772603,88.2924051 L243.772603,48.5291139 L243.772603,48.5291139 Z M288.655944,98.8531646 L264.174121,71.1582278 L288.441523,71.1582278 L313.460658,98.8531646 L288.655944,98.8531646 L288.655944,98.8531646 Z M287.366895,68.1417722 L266.320853,45.2962025 L290.589516,45.2962025 L311.848718,68.1417722 L287.366895,68.1417722 L287.366895,68.1417722 Z" id="Fill-8" filter="url(#filter-6)" sketch:type="MSShapeGroup"></path>
                <path d="M416.013131,98.8531646 L391.424099,98.8531646 L378.215771,64.5848101 L347.078072,64.5848101 L347.078072,88.0772152 L375.317305,88.0772152 L371.022581,98.8531646 L326.460871,98.8531646 L326.460871,4.77721519 L415.477079,4.77721519 L415.477079,41.5240506 L391.532571,41.5240506 L396.256137,53.8088608 L418.268335,53.8088608 L418.268335,64.5848101 L400.443651,64.5848101 L409.463203,88.0772152 L420.95238,88.0772152 L416.013131,98.8531646 L416.013131,98.8531646 Z M347.078072,15.5544304 L347.078072,30.7481013 L395.074299,30.7481013 L395.182771,15.5544304 L347.078072,15.5544304 L347.078072,15.5544304 Z M369.089008,41.5240506 L347.078072,41.5240506 L347.078072,53.8088608 L373.921047,53.8088608 L369.089008,41.5240506 L369.089008,41.5240506 Z" id="Fill-11" filter="url(#filter-7)" sketch:type="MSShapeGroup"></path>
                <path d="M475.174381,95.1101266 L475.174381,85.8759494 L512.406679,85.8759494 L512.406679,80.8291139 L479.559919,80.8291139 L479.559919,72.2392405 L512.406679,72.2392405 L512.406679,67.621519 L479.66713,67.621519 L479.66713,32.6177215 L512.406679,32.6177215 L512.406679,27.678481 L475.494751,27.678481 L475.494751,18.3367089 L512.406679,18.3367089 L512.406679,13.2898734 L479.025129,13.2898734 L479.025129,3.84177215 L547.499814,3.84177215 L548.356236,0.405063291 L569.004969,0.405063291 L564.93854,13.2898734 L532.200251,13.2898734 L532.200251,18.3367089 L569.004969,18.3367089 L569.004969,27.678481 L532.200251,27.678481 L532.200251,32.6177215 L564.83259,32.6177215 L564.83259,67.621519 L532.200251,67.621519 L532.200251,72.2392405 L565.689013,72.2392405 L565.689013,80.8291139 L532.200251,80.8291139 L532.200251,85.8759494 L569.64697,85.8759494 L569.64697,95.1101266 L475.174381,95.1101266 L475.174381,95.1101266 Z M499.781072,45.8253165 L512.406679,45.8253165 L512.406679,41.2075949 L499.781072,41.2075949 L499.781072,45.8253165 Z M499.781072,58.8177215 L512.406679,58.8177215 L512.406679,54.2 L499.781072,54.2 L499.781072,58.8177215 Z M532.200251,45.8253165 L544.824597,45.8253165 L544.824597,41.2075949 L532.200251,41.2075949 L532.200251,45.8253165 Z M532.200251,58.8177215 L544.824597,58.8177215 L544.824597,54.2 L532.200251,54.2 L532.200251,58.8177215 Z" id="Fill-13" filter="url(#filter-8)" sketch:type="MSShapeGroup"></path>
                <path d="M590.073715,20.8063291 L580.443694,0.297468354 L601.841638,0.297468354 L611.47166,20.8063291 L590.073715,20.8063291 L590.073715,20.8063291 Z M659.083191,81.3658228 L654.267549,74.6012658 L650.738434,81.3658228 L632.014444,81.3658228 L643.569208,59.2468354 L634.046397,45.6101266 L634.046397,68.9101266 L629.659597,81.3658228 L614.039665,81.3658228 L619.816417,84.8012658 L678.982712,84.8012658 L673.847962,95.1101266 L617.142462,95.1101266 L606.122489,88.7746835 L602.16327,95.1101266 L580.656853,95.1101266 L591.142035,77.6075949 L591.142035,62.4670886 L582.797278,62.4670886 L582.797278,53.0189873 L592.105668,34.5506329 L582.369698,34.5506329 L582.369698,24.0278481 L610.508027,24.0278481 L610.508027,35.8392405 L602.805271,51.6227848 L610.615237,51.6227848 L610.615237,79.9696203 L614.894826,68.5886076 L614.894826,3.94810127 L654.48197,3.94810127 L655.658763,0.0835443038 L677.163918,0.0835443038 L673.633541,14.3632911 L634.046397,14.3632911 L634.046397,25.3164557 L674.489963,25.3164557 L674.489963,37.1278481 L663.148359,58.2797468 L679.304343,81.3658228 L659.083191,81.3658228 L659.083191,81.3658228 Z M634.046397,35.7316456 L634.046397,39.4886076 L649.77354,39.4886076 L652.342806,42.9253165 L655.979133,35.7316456 L634.046397,35.7316456 L634.046397,35.7316456 Z" id="Fill-14" filter="url(#filter-9)" sketch:type="MSShapeGroup"></path>
                <path d="M689.137434,95.1101266 L689.137434,84.156962 L741.242975,84.156962 L755.793325,33.3683544 L776.228898,33.3683544 L761.998918,84.156962 L783.931654,84.156962 L783.931654,95.1101266 L689.137434,95.1101266 L689.137434,95.1101266 Z M692.027071,26.9265823 L692.027071,16.1886076 L726.370993,16.1886076 L723.802987,0.726582278 L746.164565,0.726582278 L748.839781,16.1886076 L780.401277,16.1886076 L780.401277,26.9265823 L692.027071,26.9265823 L692.027071,26.9265823 Z M711.393062,78.8962025 L695.879079,33.3683544 L716.740972,33.3683544 L732.362165,78.8962025 L711.393062,78.8962025 L711.393062,78.8962025 Z" id="Fill-15" filter="url(#filter-10)" sketch:type="MSShapeGroup"></path>
                <path d="M813.559578,82.3316456 L813.559578,94.6797468 L796.976013,94.6797468 L796.976013,1.58607595 L831.640305,1.58607595 L831.640305,36.2683544 L824.47234,41.8518987 L831.640305,46.8987342 L831.640305,82.3316456 L813.559578,82.3316456 L813.559578,82.3316456 Z M813.559578,36.5898734 L816.876795,36.5898734 L816.876795,11.8936709 L813.559578,11.8936709 L813.559578,36.5898734 Z M813.559578,72.2392405 L816.876795,72.2392405 L816.876795,47.4367089 L813.559578,47.4367089 L813.559578,72.2392405 Z M888.025435,94.6797468 L863.952274,94.6797468 L863.952274,59.6759494 L858.817524,59.6759494 L858.817524,84.0506329 L851.113507,94.6797468 L829.608352,94.6797468 L839.880374,80.4 L839.880374,59.6759494 L833.995151,59.6759494 L833.995151,49.4759494 L890.8066,49.4759494 L890.8066,59.6759494 L882.782213,59.6759494 L882.782213,84.8012658 L892.626655,84.8012658 L888.025435,94.6797468 L888.025435,94.6797468 Z M870.692658,28.7518987 L870.692658,19.0886076 L853.253932,19.0886076 L853.253932,28.7518987 L834.422732,28.7518987 L834.422732,8.88860759 L851.220718,8.88860759 L848.867133,0.618987342 L870.479499,0.618987342 L872.833083,8.88860759 L889.737018,8.88860759 L889.737018,28.7518987 L870.692658,28.7518987 L870.692658,28.7518987 Z M839.023952,31.9734177 L885.138321,31.9734177 L885.138321,42.1746835 L839.023952,42.1746835 L839.023952,31.9734177 Z" id="Fill-16" filter="url(#filter-11)" sketch:type="MSShapeGroup"></path>
            </g>
        </g>
    </g>
</svg>

<svg width="1000" height="832" viewBox="0 0 1000 832" xmlns="http://www.w3.org/2000/svg"><title>410action-shading</title><desc>Created with Sketch.</desc><defs><filter x="-50%" y="-50%" width="200%" height="200%" filterUnits="objectBoundingBox" id="a"><feGaussianBlur stdDeviation="4.004" in="SourceGraphic" result="blur"/></filter><filter x="-50%" y="-50%" width="200%" height="200%" filterUnits="objectBoundingBox" id="b"><feGaussianBlur stdDeviation="4.004" in="SourceGraphic" result="blur"/></filter><filter x="-50%" y="-50%" width="200%" height="200%" filterUnits="objectBoundingBox" id="c"><feGaussianBlur stdDeviation="4.004" in="SourceGraphic" result="blur"/></filter><filter x="-50%" y="-50%" width="200%" height="200%" filterUnits="objectBoundingBox" id="d"><feGaussianBlur stdDeviation="4" in="SourceGraphic" result="blur"/></filter><filter x="-50%" y="-50%" width="200%" height="200%" filterUnits="objectBoundingBox" id="e"><feGaussianBlur stdDeviation="4" in="SourceGraphic" result="blur"/></filter><filter x="-50%" y="-50%" width="200%" height="200%" filterUnits="objectBoundingBox" id="f"><feGaussianBlur stdDeviation="4" in="SourceGraphic" result="blur"/></filter><filter x="-50%" y="-50%" width="200%" height="200%" filterUnits="objectBoundingBox" id="g"><feGaussianBlur stdDeviation="4" in="SourceGraphic" result="blur"/></filter><filter x="-50%" y="-50%" width="200%" height="200%" filterUnits="objectBoundingBox" id="h"><feGaussianBlur stdDeviation="4" in="SourceGraphic" result="blur"/></filter><filter x="-50%" y="-50%" width="200%" height="200%" filterUnits="objectBoundingBox" id="i"><feGaussianBlur stdDeviation="4" in="SourceGraphic" result="blur"/></filter><filter x="-50%" y="-50%" width="200%" height="200%" filterUnits="objectBoundingBox" id="j"><feGaussianBlur stdDeviation="4" in="SourceGraphic" result="blur"/></filter><filter x="-50%" y="-50%" width="200%" height="200%" filterUnits="objectBoundingBox" id="k"><feGaussianBlur stdDeviation="4" in="SourceGraphic" result="blur"/></filter></defs><g fill="none" fill-rule="evenodd"><g fill="#5D5D5D" fill-opacity=".8"><g><path d="M121.926 150.516v32.297H79.04v-32.297H.46l.023-30.26L76.21.515h45.716l-.053 119.74h18.69l.14 30.26h-18.777zM79.04 60.978l-39.61 59.277h39.61V60.978z" filter="url(#a)" transform="translate(282 65)"/><path d="M176.055 182.813V23.96H145.92V.278h76.265v182.536h-46.13" id="Fill-2" filter="url(#b)" transform="translate(282 65)"/><path d="M250.345.516h134.91v182.297h-134.91V.516zm45.898 157.895h42.883V24.92h-42.883V158.41z" filter="url(#c)" transform="translate(282 65)"/></g><g><path d="M9.03 24.93L.227 4.237h20.4l8.376 20.69H9.032zm68.184 60.776l-18.79-15.733-2.577 1.51v5.494h9.126L61 85.707H36.95v-9.484h-8.484v7.435l10.952 4.634h58.09L93.536 98.1H37.7l-12.67-5.605-3.544 5.604h-20.4l9.127-14.98V66.525h-7.84V56.287l7.088-17.673H2.16v-10.56h25.987V39.8l-6.23 16.057h6.55v17.78l15.25-9.914H32.438V44.865h61.095v18.858h-25.77l-3.328 2.263H74.96l4.618 3.88 3.434-4.096h13.96l-9.128 11.1 10.523 8.836H77.214zM29.647 33.334h66.25v8.407h-66.25v-8.406zm.966-28.125H94.61v25H30.613v-25zM47.15 21.05h4.187V14.15H47.15v6.897zm3.973 35.022h23.3V52.73h-23.3v3.342zm9.663-35.023h4.08V14.15h-4.08v6.897zm13.423 0h4.08V14.15h-4.08v6.897z" filter="url(#d)" transform="translate(54 287.5)"/><path d="M115.342 92.495h-6.873l1.718-59.7h6.872l-1.718 59.7zm21.26-64.548v71.23H118.35l.105-71.23H108.9v-9.915h9.45V3.592h18.253v14.44h7.946v9.915h-7.947zm12.35 71.23V69.434h-3.22l.75 23.06h-6.66l-1.93-59.698h6.763l.967 29.633 6.55-15.302h18.468l-1.61 4.418h4.08l-.967-4.418h18.364l.965 4.418h12.24v9.05h-12.348v3.88h10.523v8.62h-10.523v4.096h10.523v8.622h-10.523V89.8h12.78v9.377H148.95zm47.996-81.036v3.45H179.23v-3.45h-9.34v3.45h-17.502v-3.45h-6.336V8.873h6.336v-5.28h17.5v5.28h9.343v-5.28h17.718v5.28h7.41v9.27h-7.41zm-49.286 5.712h25.448v21.12h-25.448v-21.12zm9.987 12.823h5.37v-4.418h-5.37v4.418zm9.018 27.802h6.98v-3.88h-6.98v3.88zm0 12.715h6.98v-4.095h-6.98v4.095zm0 12.61h6.98v-3.988h-6.98V89.8zm9.664-65.95h25.877v21.12H176.33v-21.12zm9.986 12.823h5.476v-4.418h-5.476v4.418z" filter="url(#e)" transform="translate(54 287.5)"/><path d="M294.884 42.062l-7.946-26.4h-3.114l-7.3 26.4h-16.11v56.79h-19.647l-3.76-9.267-2.683 9.268h-18.47l5.155-17.242V24.498h-4.296v-10.56h12.134l-2.47-10.13h21.26l2.686 10.13h10.307v10.56h-21.904v13.47h20.294l9.45-32.973h33.823l11.596 37.068h-19.006zm-51.11 6.467h-4.726v33.836l-1.61 5.926h6.335V48.53zm44.882 50.323l-24.482-27.695h24.268l25.02 27.695h-24.806zm-1.29-30.71l-21.045-22.847h24.27l21.26 22.846h-24.483z" filter="url(#f)" transform="translate(54 287.5)"/><path d="M416.013 98.853h-24.59l-13.207-34.268h-31.138v23.492h28.24l-4.295 10.776H326.46V4.777h89.017v36.747h-23.944l4.723 12.285h22.012v10.775h-17.824l9.02 23.492h11.488l-4.94 10.776zm-68.935-83.3V30.75h47.996l.11-15.194h-48.106zm22.01 25.97h-22.01V53.81h26.843l-4.83-12.286z" filter="url(#g)" transform="translate(54 287.5)"/><path d="M475.174 95.11v-9.234h37.233V80.83H479.56v-8.59h32.847V67.62h-32.74V32.618h32.74v-4.94h-36.912v-9.34h36.912V13.29h-33.382V3.842H547.5l.856-3.437h20.65l-4.067 12.885H532.2v5.047h36.805v9.34H532.2v4.94h32.633v35.005H532.2v4.617h33.49v8.59H532.2v5.046h37.447v9.234h-94.473zm24.607-49.285h12.627v-4.617H499.78v4.617zm0 12.993h12.627V54.2H499.78v4.618zm32.42-12.993h12.625v-4.617H532.2v4.617zm0 12.993h12.625V54.2H532.2v4.618z" filter="url(#h)" transform="translate(54 287.5)"/><path d="M590.074 20.806l-9.63-20.51h21.398l9.63 20.51h-21.398zm69.01 60.56l-4.816-6.765-3.53 6.766h-18.724l11.555-22.12-9.524-13.636v23.3l-4.386 12.456h-15.62l5.776 3.435h59.167l-5.135 10.31h-56.706l-11.02-6.335-3.96 6.335h-21.505l10.485-17.502v-15.14h-8.345v-9.45l9.31-18.467h-9.737V24.03h28.138v11.81l-7.703 15.785h7.81V79.97l4.28-11.38V3.947h39.587L655.66.084h21.504l-3.53 14.28h-39.588v10.952h40.444v11.812L663.148 58.28l16.156 23.086h-20.22zm-25.038-45.634v3.757h15.728l2.57 3.435 3.635-7.193h-21.934z" filter="url(#i)" transform="translate(54 287.5)"/><path d="M689.137 95.11V84.157h52.106l14.55-50.79h20.436L762 84.158h21.932V95.11h-94.795zm2.89-68.183V16.19h34.344L723.804.726h22.362l2.675 15.462h31.56v10.737h-88.373zm19.366 51.97l-15.514-45.53h20.86l15.622 45.53h-20.97z" filter="url(#j)" transform="translate(54 287.5)"/><path d="M813.56 82.332V94.68h-16.584V1.586h34.664v34.682l-7.168 5.584 7.168 5.047V82.33h-18.08zm0-45.742h3.317V11.894h-3.317V36.59zm0 35.65h3.317V47.436h-3.317V72.24zm74.465 22.44h-24.073V59.676h-5.134V84.05l-7.704 10.63h-21.506L839.88 80.4V59.676h-5.885v-10.2h56.812v10.2h-8.025V84.8h9.845l-4.602 9.88zm-17.332-65.928V19.09h-17.44v9.662h-18.83V8.89h16.798L848.868.62h21.612l2.353 8.27h16.904V28.75h-19.044zm-31.67 3.22h46.115v10.203h-46.114V31.973z" filter="url(#k)" transform="translate(54 287.5)"/></g></g></g></svg>
